X:2071
T:Souree 
C:Traditional
O:Isle of Man
Z:Clague collection
B:Kiaull Vannin #71 
N:See also KV 273
M:6/8 
Q:130 
K:D 
B|G2F E2E|B3 B2 F|G2G E2E|E3 E2B|G2F E2E|B3 B2 F|G2G E2E| E3 E2 E/F/|
G2A B2c|d2c B2A|G2F E2E|B3 B2B/A/|G3 F2E|B3 B2A|G2F E2E|E3E2|| 

